X:1
T:qui nous separera de lamour 
%%score { ( 1 2 ) | ( 3 4 ) }
L:1/8
Q:1/4=90
M:4/4
K:Bb
V:1 treble nm="Piano" snm="Pno"
V:2 treble 
V:3 bass 
V:4 bass 
V:1
 z4 z3 D |"Gm" DG AB"Dm" A2 GF |"Cm" E2"Amb5" D2"D" D3 D |"Gm" GA Bc"Cm" A3 A | %4
w: Qui|nous sé pa re ra de l'a|mour du Christ qui|nous é loi gne ra de|
"D" dcBA"Gm" G2 G2 |] %5
w: sa mi sé ri cor de|
V:2
 x7 D | DD DD F2 DD | C2 C2 C3 C | B,C DC E3 E | DEDC B,2 B,2 |] %5
V:3
 z4 z3 G, | B,B, CD D2 DG, | G,2 G,2 ^F,3 F, | G,G, G,G, G,3 G, | ^F,F,F,F, G,2 G,2 |] %5
V:4
 x7 B, | G,G, G,G, D,2 B,,B,, | C,2 A,,2 D,3 D, | G,G, E,E, C,3 C, | D,D,D,D, G,2 G,2 |] %5

